assets/svg/currencies/fiat/GBP.svg

<svg viewBox="0 0 300 300" fill="none" xmlns="http://www.w3.org/2000/svg">
    <path d="M150 300c82.843 0 150-67.157 150-150S232.843 0 150 0 0 67.157 0 150s67.157 150 150 150z" fill="#10BA97"/>
    <path d="M114.73 154.849H95.142v-24.581h11.753c-2.285-8.357-3.428-15.732-3.428-22.123 0-15.076 4.489-27.12 13.467-36.134C125.912 62.671 137.747 58 152.438 58c11.917 0 22.119 2.95 30.607 8.85 8.652 5.899 14.855 14.256 18.609 25.072L180.352 102c-5.55-12.946-14.855-19.419-27.914-19.419-7.182 0-12.895 2.212-17.14 6.637-4.244 4.26-6.366 10.652-6.366 19.173 0 8.685.816 15.978 2.449 21.877h39.911v24.581h-32.566c.817 4.589 1.225 8.685 1.225 12.291 0 16.223-6.693 30.07-20.079 41.542 8.162-5.244 15.508-7.866 22.037-7.866 4.734 0 9.713 1.475 14.937 4.424 5.55 2.786 9.957 4.179 13.222 4.179 7.509 0 14.038-4.67 19.588-14.011L209 206.223c-5.224 9.833-10.855 16.961-16.895 21.386-5.877 4.261-12.896 6.391-21.058 6.391-6.856 0-14.038-1.393-21.547-4.179-7.346-2.949-12.733-4.424-16.16-4.424-9.631 0-19.018 2.867-28.159 8.603L90 217.039c9.631-9.177 16.487-17.125 20.568-23.843 4.244-6.883 6.366-14.257 6.366-22.123 0-5.9-.734-11.308-2.204-16.224z" fill="#fff"/>
</svg>

<svg width="300" height="300" viewBox="0 0 300 300" fill="none" xmlns="http://www.w3.org/2000/svg">
<path d="M150 300C232.843 300 300 232.843 300 150C300 67.1573 232.843 0 150 0C67.1573 0 0 67.1573 0 150C0 232.843 67.1573 300 150 300Z" fill="#10BA97"/>
<path d="M114.73 154.849H95.142V130.268H106.895C104.61 121.911 103.467 114.536 103.467 108.145C103.467 93.0689 107.956 81.0242 116.934 72.0112C125.912 62.6704 137.747 58 152.438 58C164.355 58 174.557 60.9497 183.045 66.8492C191.697 72.7486 197.9 81.1061 201.654 91.9218L180.352 102C174.802 89.054 165.497 82.581 152.438 82.581C145.256 82.581 139.543 84.7933 135.298 89.2179C131.054 93.4786 128.932 99.8696 128.932 108.391C128.932 117.076 129.748 124.369 131.381 130.268H171.292V154.849H138.726C139.543 159.438 139.951 163.534 139.951 167.14C139.951 183.363 133.258 197.21 119.872 208.682C128.034 203.438 135.38 200.816 141.909 200.816C146.643 200.816 151.622 202.291 156.846 205.24C162.396 208.026 166.803 209.419 170.068 209.419C177.577 209.419 184.106 204.749 189.656 195.408L209 206.223C203.776 216.056 198.145 223.184 192.105 227.609C186.228 231.87 179.209 234 171.047 234C164.191 234 157.009 232.607 149.5 229.821C142.154 226.872 136.767 225.397 133.34 225.397C123.709 225.397 114.322 228.264 105.181 234L90 217.039C99.631 207.862 106.487 199.914 110.568 193.196C114.812 186.313 116.934 178.939 116.934 171.073C116.934 165.173 116.2 159.765 114.73 154.849Z" fill="white"/>
</svg>
